assets/images/svg/calendar.svg

<svg id="Layer_1" enable-background="new 0 0 512 512" height="512" viewBox="0 0 512 512" width="512" xmlns="http://www.w3.org/2000/svg"><g><path d="m446 40h-46v-24c0-8.836-7.163-16-16-16s-16 7.164-16 16v24h-224v-24c0-8.836-7.163-16-16-16s-16 7.164-16 16v24h-46c-36.393 0-66 29.607-66 66v340c0 36.393 29.607 66 66 66h380c36.393 0 66-29.607 66-66v-340c0-36.393-29.607-66-66-66zm-380 32h46v16c0 8.836 7.163 16 16 16s16-7.164 16-16v-16h224v16c0 8.836 7.163 16 16 16s16-7.164 16-16v-16h46c18.748 0 34 15.252 34 34v38h-448v-38c0-18.748 15.252-34 34-34zm380 408h-380c-18.748 0-34-15.252-34-34v-270h448v270c0 18.748-15.252 34-34 34z"/></g></svg>

<svg id="calendar" xmlns="http://www.w3.org/2000/svg" width="512" height="512" viewBox="0 0 512 512">
  <path id="Path_101" data-name="Path 101" d="M446,40H400V16a16,16,0,0,0-32,0V40H144V16a16,16,0,0,0-32,0V40H66A66.074,66.074,0,0,0,0,106V446a66.074,66.074,0,0,0,66,66H446a66.074,66.074,0,0,0,66-66V106A66.074,66.074,0,0,0,446,40ZM66,72h46V88a16,16,0,0,0,32,0V72H368V88a16,16,0,0,0,32,0V72h46a34.038,34.038,0,0,1,34,34v38H32V106A34.038,34.038,0,0,1,66,72ZM446,480H66a34.038,34.038,0,0,1-34-34V176H480V446A34.038,34.038,0,0,1,446,480Z" fill="#f3777a"/>
</svg>
